<?xml version="1.0" encoding="UTF-8"?>
<map version="1.10" tiledversion="1.11.2" orientation="orthogonal" renderorder="right-down" width="30" height="30" tilewidth="8" tileheight="8" infinite="0" nextlayerid="3" nextobjectid="1">
 <tileset firstgid="1" source="Base.tsx"/>
 <layer id="2" name="Base" width="30" height="30">
  <data encoding="csv">
0,0,0,0,0,0,0,0,0,0,0,0,0,0,0,0,0,0,0,0,0,0,0,0,0,0,0,0,0,0,
0,0,0,0,0,0,0,0,0,0,0,0,0,0,0,0,0,0,0,0,0,0,0,0,0,0,0,0,0,0,
0,0,0,0,0,0,0,0,0,0,0,0,0,0,0,0,0,0,0,0,0,0,0,0,0,0,0,0,0,0,
0,0,0,0,0,0,0,0,0,0,0,0,0,0,0,0,0,0,0,0,0,0,0,0,0,0,0,0,0,0,
0,0,0,0,0,0,0,0,0,0,0,0,0,0,0,0,0,0,0,0,0,0,0,0,0,0,0,0,0,0,
0,0,0,0,0,0,0,0,0,0,0,0,0,0,0,0,0,0,0,0,0,0,0,0,0,0,0,0,0,0,
0,0,0,0,0,0,0,0,0,0,0,0,0,0,0,0,0,0,0,0,0,0,0,0,0,0,0,0,0,0,
0,0,0,0,0,0,0,0,0,0,0,0,0,0,0,0,0,0,0,0,0,0,0,0,0,0,0,0,0,0,
0,0,0,0,0,0,0,0,0,0,0,0,0,0,0,0,0,0,0,0,0,0,0,0,0,0,0,0,0,0,
0,0,0,0,0,0,0,0,0,0,0,0,0,0,0,0,0,0,0,0,0,0,0,0,0,0,0,0,0,0,
0,0,0,0,0,0,0,0,0,0,0,0,0,0,0,0,0,0,0,0,0,0,0,0,0,0,0,0,0,0,
0,0,0,0,0,0,0,0,0,0,0,0,0,0,0,0,0,0,0,0,0,0,0,0,0,0,0,0,0,0,
0,0,0,0,0,0,0,0,0,0,0,0,0,0,0,0,0,0,0,0,0,0,0,0,0,0,0,0,0,0,
0,0,0,0,0,0,0,0,0,0,0,0,0,0,0,0,0,0,0,0,0,0,0,0,0,0,0,0,0,0,
0,0,0,0,0,0,0,0,0,0,0,0,0,0,0,0,0,0,0,0,0,0,0,0,0,0,0,0,0,0,
0,0,0,0,0,0,0,0,0,0,0,0,0,0,0,0,0,0,0,0,0,0,0,0,0,0,0,0,0,0,
0,0,0,0,0,0,0,0,0,0,0,0,0,0,0,0,0,0,0,0,0,0,0,0,0,0,0,0,0,0,
0,0,0,0,0,0,0,0,0,0,0,0,0,0,0,0,0,0,0,0,0,0,0,0,0,0,0,0,0,0,
0,0,0,0,0,0,0,0,0,0,0,0,0,0,0,0,0,0,0,0,0,0,0,0,0,0,0,0,0,0,
0,0,0,0,0,0,0,0,0,0,0,0,0,0,0,0,0,0,0,0,0,0,0,0,0,0,0,0,0,0,
0,0,0,0,0,0,0,0,0,0,0,0,0,0,0,0,0,0,0,0,0,0,0,0,0,0,0,0,0,0,
0,0,0,0,0,0,0,0,0,0,0,0,0,0,0,0,0,0,0,0,0,0,0,0,0,0,0,0,0,0,
0,0,0,0,0,0,0,0,0,0,0,0,0,0,0,0,0,0,0,0,0,0,0,0,0,0,0,0,0,0,
0,0,0,0,0,0,0,0,0,0,0,0,0,0,0,0,0,0,0,0,0,0,0,0,0,0,0,0,0,0,
0,0,0,0,0,0,0,0,0,0,0,0,0,0,0,0,0,0,0,0,0,0,0,0,0,0,0,0,0,0,
0,0,0,0,0,0,0,0,0,0,0,0,0,0,0,0,0,0,0,0,0,0,0,0,0,0,0,0,0,0,
0,0,0,0,0,0,0,0,0,0,0,0,0,0,0,0,0,0,0,0,0,0,0,0,0,0,0,0,0,0,
0,0,0,0,0,0,0,0,0,0,0,0,0,0,0,0,0,0,0,0,0,0,0,0,0,0,0,0,0,0,
0,0,0,0,0,0,0,0,0,0,0,0,0,0,0,0,0,0,0,0,0,0,0,0,0,0,0,0,0,0,
0,0,0,0,0,0,0,0,0,0,0,0,0,0,0,0,0,0,0,0,0,0,0,0,0,0,0,0,0,0
</data>
 </layer>
 <layer id="1" name="Tile Layer 1" width="30" height="30">
  <data encoding="csv">
607,604,604,645,0,0,0,2147484293,604,604,604,604,604,604,604,604,2147484252,2147484252,2147484252,2147484252,2147484252,2147484252,645,0,0,0,2147484293,2147484252,2147484252,2147484255,
2147484254,0,0,0,0,0,0,0,0,0,0,0,0,0,0,0,0,0,0,0,0,0,0,0,0,0,0,0,0,606,
2147484254,0,0,0,0,0,0,0,0,0,0,0,0,0,0,0,0,0,0,0,0,0,0,0,0,0,0,0,0,606,
645,0,0,0,0,0,0,0,0,0,0,0,0,0,0,0,0,0,0,0,0,0,0,0,0,0,0,0,0,2147484293,
0,0,0,0,0,0,0,0,0,0,0,0,0,0,0,0,0,0,0,0,0,0,0,0,0,0,0,0,0,0,
0,0,0,0,0,0,0,0,0,0,0,0,0,0,0,0,0,0,0,0,0,0,0,0,0,0,0,0,0,0,
0,0,0,0,0,0,3221226118,2684355166,2684355166,2684355166,2684355166,2684355166,2684355166,2684355166,2684355166,2684355166,536871518,536871518,536871518,536871518,536871518,536871518,536871518,1073742470,0,0,0,0,0,0,
1073742470,0,0,0,0,0,606,607,607,607,607,607,607,607,607,607,2147484255,2147484255,2147484255,2147484255,2147484255,2147484255,2147484255,2147484254,0,0,0,0,0,3221226118,
2147484254,0,0,0,0,0,606,607,607,607,607,607,607,607,607,607,2147484255,2147484255,2147484255,2147484255,2147484255,2147484255,2147484255,2147484254,0,0,0,0,0,606,
2147484254,0,0,0,0,0,606,607,607,607,607,607,607,607,607,607,2147484255,2147484255,2147484255,2147484255,2147484255,2147484255,2147484255,2147484254,0,0,0,0,0,606,
2147484254,0,0,0,0,0,606,607,607,607,607,607,607,607,607,607,2147484255,2147484255,2147484255,2147484255,2147484255,2147484255,2147484255,2147484254,0,0,0,0,0,606,
2147484254,0,0,0,0,0,606,607,607,607,607,607,607,607,607,607,2147484255,2147484255,2147484255,2147484255,2147484255,2147484255,2147484255,2147484254,0,0,0,0,0,606,
2147484254,0,0,0,0,0,606,607,607,607,607,607,607,607,607,607,2147484255,2147484255,2147484255,2147484255,2147484255,2147484255,2147484255,2147484254,0,0,0,0,0,606,
2147484254,0,0,0,0,0,606,607,607,607,607,607,607,607,607,607,2147484255,2147484255,2147484255,2147484255,2147484255,2147484255,2147484255,2147484254,0,0,0,0,0,606,
2147484254,0,0,0,0,0,606,607,607,607,607,607,607,607,607,607,2147484255,2147484255,2147484255,2147484255,2147484255,2147484255,2147484255,2147484254,0,0,0,0,0,606,
2147484254,0,0,0,0,0,606,607,607,607,607,607,607,607,607,607,2147484255,2147484255,2147484255,2147484255,2147484255,2147484255,2147484255,2147484254,0,0,0,0,0,606,
2147484254,0,0,0,0,0,606,607,607,607,607,607,607,607,607,607,2147484255,2147484255,2147484255,2147484255,2147484255,2147484255,2147484255,2147484254,0,0,0,0,0,606,
2147484254,0,0,0,0,0,606,607,607,607,607,607,607,607,607,607,2147484255,2147484255,2147484255,2147484255,2147484255,2147484255,2147484255,2147484254,0,0,0,0,0,606,
2147484254,0,0,0,0,0,606,607,607,607,607,607,607,607,607,607,2147484255,2147484255,2147484255,2147484255,2147484255,2147484255,2147484255,2147484254,0,0,0,0,0,606,
2147484254,0,0,0,0,0,606,607,607,607,607,607,607,607,607,607,2147484255,2147484255,2147484255,2147484255,2147484255,2147484255,2147484255,2147484254,0,0,0,0,0,606,
2147484254,0,0,0,0,0,606,607,607,607,607,607,607,607,607,607,2147484255,2147484255,2147484255,2147484255,2147484255,2147484255,2147484255,2147484254,0,0,0,0,0,606,
2147484254,0,0,0,0,0,606,607,607,607,607,607,607,607,607,607,2147484255,2147484255,2147484255,2147484255,2147484255,2147484255,2147484255,2147484254,0,0,0,0,0,606,
645,0,0,0,0,0,606,607,607,607,607,607,607,607,607,607,2147484255,2147484255,2147484255,2147484255,2147484255,2147484255,2147484255,2147484254,0,0,0,0,0,2147484293,
0,0,0,0,0,0,2147484293,604,604,604,604,604,604,604,604,604,2147484252,2147484252,2147484252,2147484252,2147484252,2147484252,2147484252,645,0,0,0,0,0,0,
0,0,0,0,0,0,0,0,0,0,0,0,0,0,0,0,0,0,0,0,0,0,0,0,0,0,0,0,0,0,
0,0,0,0,0,0,0,0,0,0,0,0,0,0,0,0,0,0,0,0,0,0,0,0,0,0,0,0,0,0,
1073742470,0,0,0,0,0,0,0,0,0,0,0,0,0,0,0,0,0,0,0,0,0,0,0,0,0,0,0,0,3221226118,
2147484254,0,0,0,0,0,0,0,0,0,0,0,0,0,0,0,0,0,0,0,0,0,0,0,0,0,0,0,0,606,
2147484254,0,0,0,0,0,0,0,0,0,0,0,0,0,0,0,0,0,0,0,0,0,0,0,0,0,0,0,0,606,
3221226079,2684355166,2684355166,1610613381,0,0,0,3221226118,2684355166,2684355166,2684355166,2684355166,2684355166,2684355166,2684355166,2684355166,536871518,536871518,536871518,536871518,536871518,536871518,1073742470,0,0,0,3758097029,536871518,536871518,1073742431
</data>
 </layer>
</map>
