<?xml version="1.0" encoding="UTF-8"?>
<map version="1.10" tiledversion="1.11.2" orientation="orthogonal" renderorder="right-down" width="40" height="20" tilewidth="8" tileheight="8" infinite="0" nextlayerid="4" nextobjectid="1">
 <tileset firstgid="1" source="Base.tsx"/>
 <layer id="1" name="Base" width="40" height="20">
  <data encoding="csv">
1147,419,420,420,421,2147484794,3221226658,3221226658,3221226658,3221226658,3221226658,3221226658,3221226658,3221226658,2684355241,1147,1147,1147,1147,536871593,0,0,0,0,0,0,0,0,0,0,0,0,0,0,0,0,0,0,0,0,
1147,607,607,607,607,2147484794,2147484794,2147484794,2147484794,2147484794,2147484794,2147484794,2147484794,2147484794,2684355241,1147,1147,1147,1147,536871593,0,0,0,0,0,0,0,0,0,0,0,0,0,0,0,0,0,0,0,0,
1147,607,607,607,607,2147484794,2147484794,2147484794,2147484794,2147484794,2147484794,2147484794,2147484794,2147484794,2684355242,681,681,681,681,536871594,0,0,0,0,0,0,0,0,0,0,0,0,0,0,0,0,0,0,0,0,
1147,1147,1147,1147,1147,2147484794,2147484794,2147484794,2147484794,2147484794,2147484794,2147484794,2147484794,2147484794,607,607,607,607,607,607,0,0,0,0,0,0,0,0,0,0,0,0,0,0,0,0,0,0,0,0,
1147,1147,1147,1147,1147,2147484794,2147484794,2147484794,2147484794,2147484794,2147484794,2147484794,2147484794,2147484794,607,607,607,607,607,607,0,0,0,0,0,0,0,0,0,0,0,0,0,0,0,0,0,0,0,0,
1147,1147,1147,1147,1147,2147484794,607,607,607,607,607,607,607,607,3221226154,3221226153,3221226153,3221226153,3221226153,1073742506,0,0,0,0,0,0,0,0,0,0,0,0,0,0,0,0,0,0,0,0,
1187,1187,1187,1187,1187,2147484834,607,607,607,607,607,607,607,607,2684355242,681,681,681,681,536871594,0,0,0,0,0,0,0,0,0,0,0,0,0,0,0,0,0,0,0,0,
651,651,611,607,651,610,611,651,651,607,611,651,607,607,607,607,610,610,611,607,607,651,611,607,611,610,651,611,611,610,610,651,651,610,611,607,611,611,607,610,
611,651,610,651,607,607,611,610,607,651,651,651,610,651,610,607,607,607,651,651,607,607,611,607,607,607,651,610,611,610,611,607,611,610,611,610,651,607,610,607,
607,651,610,611,651,611,611,610,611,651,611,651,607,611,611,651,611,610,651,651,607,607,607,607,607,651,610,607,651,651,611,607,610,651,607,610,611,610,607,611,
651,611,610,610,611,610,651,651,611,607,651,610,607,610,611,611,610,651,607,611,610,607,651,651,651,607,607,651,651,611,610,607,611,607,651,611,610,611,611,611,
684,684,684,684,684,684,684,684,684,684,684,684,684,684,684,684,684,684,684,684,684,684,684,684,684,684,684,684,684,684,684,684,684,684,684,684,684,684,684,684,
681,681,681,681,2147484329,681,2147484329,681,681,681,681,2147484329,681,681,681,681,2147484329,681,681,681,2147484329,681,681,2147484329,2147484329,681,681,2147484329,681,681,681,681,2147484329,2147484329,681,2147484329,681,681,2147484329,2147484329,
1601,1601,1601,1601,1601,1601,1601,1601,1601,1601,1601,1601,1601,1601,1601,1601,1601,1601,1601,1601,1601,1601,1601,1601,1601,1601,1601,1601,1601,1601,1601,1601,1601,1601,1601,1601,1601,1601,1601,1601,
1641,1641,1641,1641,1641,1641,1641,1641,1641,1641,1641,1641,1641,1641,1641,1641,1641,1641,1641,1641,1641,1641,1641,1641,1641,1641,1641,1641,1641,1641,1641,1641,1641,1641,1641,1641,1641,1641,1641,1641,
1681,1681,1681,1681,1681,1681,1681,1681,1681,1681,1681,1681,1681,1681,1681,1681,1681,1681,1681,1681,1681,1681,1681,1681,1681,1681,1681,1681,1681,1681,1681,1681,1681,1681,1681,1681,1681,1681,1681,1681,
1721,1721,1721,1721,1721,1721,1721,1721,1721,1721,1721,1721,1721,1721,1721,1721,1721,1721,1721,1721,1721,1721,1721,1721,1721,1721,1721,1721,1721,1721,1721,1721,1721,1721,1721,1721,1721,1721,1721,1721,
659,659,659,659,659,659,659,659,659,659,659,659,659,659,659,659,659,659,659,659,659,659,659,659,659,659,659,659,659,659,659,659,659,659,659,659,659,659,659,659,
659,659,659,659,659,659,659,659,659,659,659,659,659,659,659,659,659,659,659,659,659,659,659,659,659,659,659,659,659,659,659,659,659,659,659,659,659,659,659,659,
659,659,659,659,659,659,659,659,659,659,659,659,659,659,659,659,659,659,659,659,659,659,659,659,659,659,659,659,659,659,659,659,659,659,659,659,659,659,659,659
</data>
 </layer>
 <layer id="2" name="Detalle" width="40" height="20">
  <data encoding="csv">
0,0,0,0,0,0,0,1764,1765,1766,1767,1768,0,0,0,0,0,0,0,0,0,0,0,0,0,0,0,0,0,0,0,2147485416,2147485415,2147485414,2147485413,2147485412,0,0,0,0,
0,0,0,0,0,0,0,1804,1805,1806,1807,1808,0,0,0,0,0,0,0,0,0,0,0,0,0,0,0,0,0,0,0,2147485456,2147485455,2147485454,2147485453,0,0,0,0,0,
0,0,0,0,0,0,0,1844,1845,1846,1847,1848,0,0,0,0,0,0,0,0,0,0,0,0,0,0,0,0,0,0,0,2147485496,2147485495,2147485494,2147485493,0,0,0,0,0,
0,0,0,0,0,0,0,1884,1885,1886,1887,1888,0,0,0,0,0,0,0,0,0,0,0,0,0,0,0,0,0,0,0,2147485536,2147485535,2147485534,0,0,0,0,0,0,
0,0,0,0,0,0,0,1924,1925,1926,1927,1928,0,0,0,0,0,0,0,0,0,0,0,0,0,0,0,0,0,0,0,2147485576,2147485575,2147485574,0,0,0,0,0,0,
0,0,0,0,0,0,0,1964,1965,1966,1967,1968,0,0,0,0,0,0,0,0,0,0,0,0,0,0,0,0,0,0,0,2147485616,2147485615,2147485614,0,0,0,0,0,0,
0,0,0,0,0,0,0,2004,2005,2006,2007,2008,0,0,0,0,0,0,0,0,0,0,0,0,0,0,0,0,0,0,0,2147485656,2147485655,2147485654,2147485653,2147485652,0,0,0,0,
0,0,0,0,0,0,0,2044,2045,2046,2047,2048,0,0,0,0,0,0,0,0,0,0,0,0,0,0,0,0,0,0,0,2147485696,2147485695,2147485694,2147485693,2147485692,0,0,0,0,
0,0,0,0,0,0,0,0,0,0,0,0,0,0,0,0,0,0,0,0,0,0,0,0,0,0,0,0,0,0,0,0,0,0,0,0,0,0,0,0,
0,0,0,0,0,0,0,0,0,0,0,0,0,0,0,0,0,0,0,0,0,0,0,0,0,0,0,0,0,0,0,0,0,0,0,0,0,0,0,0,
522,521,521,522,522,522,521,521,522,522,522,521,522,522,522,522,521,521,522,522,522,521,522,522,522,522,521,522,522,522,522,521,522,522,522,522,521,522,522,522,
0,641,0,0,0,0,1073742425,0,0,0,0,1073742425,0,0,0,0,601,0,0,0,0,1073742385,0,0,0,0,1073742425,0,0,0,0,1073742385,0,0,0,0,1073742425,0,0,0,
0,601,0,0,0,0,1073742385,0,0,0,0,641,0,0,0,0,641,0,0,0,0,1073742385,0,0,0,0,641,0,0,0,0,1073742385,0,0,0,0,561,0,0,0,
0,0,0,0,0,0,0,0,0,0,0,0,0,0,0,0,0,0,0,0,0,0,0,0,0,0,0,0,0,0,0,0,0,0,0,0,0,0,0,0,
0,0,0,0,0,0,0,0,0,0,0,0,0,0,0,0,0,0,0,0,0,0,0,0,0,0,0,0,0,0,0,0,0,0,0,0,0,0,0,0,
0,0,0,0,0,0,0,0,0,0,0,0,0,0,0,0,0,0,0,0,0,0,0,0,0,0,0,0,0,0,0,0,0,0,0,0,0,0,0,0,
0,0,0,0,0,0,0,0,0,0,0,0,0,0,0,0,0,0,0,0,0,0,0,0,0,0,0,0,0,0,0,0,0,0,0,0,0,0,0,0,
0,0,0,0,0,0,0,0,0,0,0,0,0,0,0,0,0,0,0,0,0,0,0,0,0,0,0,0,0,0,0,0,0,0,0,0,0,0,0,0,
0,0,0,0,0,0,0,0,0,0,0,0,0,0,0,0,0,0,0,0,0,0,0,0,0,0,0,0,0,0,0,0,0,0,0,0,0,0,0,0,
0,0,0,0,0,0,0,0,0,0,0,0,0,0,0,0,0,0,0,0,0,0,0,0,0,0,0,0,0,0,0,0,0,0,0,0,0,0,0,0
</data>
 </layer>
 <layer id="3" name="Detall2" width="40" height="20">
  <data encoding="csv">
0,0,0,0,0,0,0,0,0,0,0,0,0,0,0,0,0,0,0,0,0,0,0,0,0,0,0,0,2147485424,2147485423,2147485422,2147485421,2147485420,2147485419,2147485418,2147485417,0,0,0,0,
0,0,0,0,0,0,0,0,0,0,0,0,0,0,0,0,0,0,0,0,0,0,0,0,0,0,0,0,2147485464,2147485463,2147485462,2147485461,2147485460,2147485459,2147485458,2147485457,0,0,0,0,
0,0,0,0,0,0,0,0,0,0,0,0,0,0,0,0,0,0,0,0,0,0,0,0,0,0,0,0,2147485504,2147485503,2147485502,2147485501,2147485500,2147485499,2147485498,2147485497,0,0,0,0,
0,0,0,0,0,0,0,0,0,0,0,0,0,0,0,0,0,0,0,0,0,0,0,0,0,0,0,0,2147485544,2147485543,2147485542,2147485541,2147485540,2147485539,2147485538,2147485537,0,0,0,0,
0,0,0,0,0,0,0,0,0,0,0,0,0,0,0,0,0,0,0,0,0,0,0,0,0,0,0,0,2147485584,2147485583,2147485582,2147485581,2147485580,2147485579,2147485578,2147485577,0,0,0,0,
0,0,0,0,0,0,0,0,0,0,0,0,0,0,0,0,0,0,0,0,0,0,0,0,0,0,0,0,2147485624,2147485623,2147485622,2147485621,2147485620,2147485619,2147485618,2147485617,0,0,0,0,
0,0,0,0,0,0,0,0,0,0,0,0,0,0,0,0,0,0,0,0,0,0,0,0,0,0,0,0,0,0,0,0,0,0,0,0,0,0,0,0,
0,0,0,0,0,0,0,0,0,0,0,0,0,0,0,0,0,0,0,0,0,0,0,0,0,0,0,0,0,0,0,0,0,0,0,0,0,0,0,0,
0,0,0,0,0,0,0,0,0,0,0,0,0,0,0,0,0,0,0,0,0,0,0,0,0,0,0,0,0,0,0,0,0,0,0,0,0,0,0,0,
0,0,0,0,0,0,0,0,0,0,0,0,0,0,0,0,0,0,0,0,0,0,0,0,0,0,0,0,0,0,0,0,0,0,0,0,0,0,0,0,
0,0,0,0,0,0,0,0,0,0,0,0,0,0,0,0,0,0,0,0,0,0,0,0,0,0,0,0,0,0,0,0,0,0,0,0,0,0,0,0,
0,0,0,0,0,0,0,0,0,0,0,0,0,0,0,0,0,0,0,0,0,0,0,0,0,0,0,0,0,0,0,0,0,0,0,0,0,0,0,0,
0,0,0,0,0,0,0,0,0,0,0,0,0,0,0,0,0,0,0,0,0,0,0,0,0,0,0,0,0,0,0,0,0,0,0,0,0,0,0,0,
0,0,0,0,0,0,0,0,0,0,0,0,0,0,0,0,0,0,0,0,0,0,0,0,0,0,0,0,0,0,0,0,0,0,0,0,0,0,0,0,
0,0,0,0,0,0,0,0,0,0,0,0,0,0,0,0,0,0,0,0,0,0,0,0,0,0,0,0,0,0,0,0,0,0,0,0,0,0,0,0,
0,0,0,0,0,0,0,0,0,0,0,0,0,0,0,0,0,0,0,0,0,0,0,0,0,0,0,0,0,0,0,0,0,0,0,0,0,0,0,0,
0,0,0,0,0,0,0,0,0,0,0,0,0,0,0,0,0,0,0,0,0,0,0,0,0,0,0,0,0,0,0,0,0,0,0,0,0,0,0,0,
0,0,0,0,0,0,0,0,0,0,0,0,0,0,0,0,0,0,0,0,0,0,0,0,0,0,0,0,0,0,0,0,0,0,0,0,0,0,0,0,
0,0,0,0,0,0,0,0,0,0,0,0,0,0,0,0,0,0,0,0,0,0,0,0,0,0,0,0,0,0,0,0,0,0,0,0,0,0,0,0,
0,0,0,0,0,0,0,0,0,0,0,0,0,0,0,0,0,0,0,0,0,0,0,0,0,0,0,0,0,0,0,0,0,0,0,0,0,0,0,0
</data>
 </layer>
</map>
